X:5
T: Thijsken van den Schilde
N: A0368
O: Europa, Mitteleuropa, Deutschland
N: Souterliedekens 1540 ad Ps. 112. Nach 1400.
R: Romanze, Ballade, Lied, Personenlied
M: 4/2
L: 1/2
K: D
D | =FFGG | A2A2z
=c | _BAAG | A2=F2z
G | AG=FE | D2D2z
A | A2G=F2E | D2=C2 | z
DEE | A2A2G2 | =FE2D2C | DE=F
DEE | A2A2G2 | =FE2D2C | D3

@@@ Tune index: 318
